X: 328
P: Longways for as many as will
M: 6/4
L: 1/4
K: Gm
g |\
^f2d d=e^f | g3 b3 | (fd2) c2B | G3- G2g |\
^f2d d=e^f | g3 b3 | (fd2) c2B | B3- B2F |

